X:2015
M:2/4
L:1/8

K:C
D |: G/A/ B2 d/c/ | A/F/ G2 G | ge/cB/ce/ | g>e dd :|
|: Bd/gf/ed/  | c/B/ A2 B | cd/ed/cB/ | A/F/ G2 G :|
(:musicend:)



[[!Ackord]]
(:music:)
